X: 103106
Q:"Reel."
M: C
L: 1/8
K: D
(FG) |\
afdf gece | d2d2 d2 |]
(de) |\
f2f2 fagf | edcd egfe |\
f2f2 fagf | edcB A2g2 |\
fefg fagf | edcd efge |\
fafd egec | d2d2 d2 |]\
{D}"_Fin."D4 |]



